X: 426
T: Manman pin qinqin xin haolan
%%abc-version 2.0
%%abcx-abcm2ps-target-version 5.9.1 (29 Sep 2008)
%%abc-creator hum2abc beta
%%abcx-conversion-date 2013/10/02 07:52:30
%%abc-edited-by Helmut Schaffrath
%%humdrum-veritas 3192669168
%%humdrum-veritas-data 4131279506
%%continueall 1
%%barnumbers 0
L: 1/8
M: 2/4
K: Db
B AB2 [I:setbarnb 1]| 
A f e d | 
F F/ A/ E D | 
B,4 | 
B AB2 | 
A f e d | 
F> A E D | 
E4 |]  



